svg/database_refresh_outline.svg

<svg xmlns="http://www.w3.org/2000/svg" viewBox="0 0 24 24"><path d="M6 12.45V9.64c1.47.83 3.61 1.36 6 1.36s4.53-.53 6-1.36v2.39c.17-.03.33-.03.5-.03.5 0 1 .07 1.5.18V7c0-2.21-3.58-4-8-4S4 4.79 4 7v10c0 2.21 3.59 4 8 4h.5c-.26-.63-.41-1.3-.47-2H12c-3.87 0-6-1.5-6-2v-2.23c1.61.78 3.72 1.23 6 1.23h.5c.35-.82.84-1.54 1.45-2.14-.63.09-1.28.14-1.95.14-2.42 0-4.7-.6-6-1.55M12 5c3.87 0 6 1.5 6 2s-2.13 2-6 2-6-1.5-6-2 2.13-2 6-2m6 13.5 1.77-1.77A2.5 2.5 0 1 0 20 20h1.71A3.99 3.99 0 0 1 18 22.5c-2.21 0-4-1.79-4-4s1.79-4 4-4c1.11 0 2.11.45 2.83 1.17L22 14.5v4z"/></svg>

<?xml version="1.0" encoding="UTF-8"?><!DOCTYPE svg PUBLIC "-//W3C//DTD SVG 1.1//EN" "http://www.w3.org/Graphics/SVG/1.1/DTD/svg11.dtd"><svg xmlns="http://www.w3.org/2000/svg" xmlns:xlink="http://www.w3.org/1999/xlink" version="1.1" id="mdi-database-refresh-outline" width="24" height="24" viewBox="0 0 24 24"><path d="M6 12.45V9.64C7.47 10.47 9.61 11 12 11S16.53 10.47 18 9.64V12.03C18.17 12 18.33 12 18.5 12C19 12 19.5 12.07 20 12.18V7C20 4.79 16.42 3 12 3S4 4.79 4 7V17C4 19.21 7.59 21 12 21C12.17 21 12.33 21 12.5 21C12.24 20.37 12.09 19.7 12.03 19L12 19C8.13 19 6 17.5 6 17V14.77C7.61 15.55 9.72 16 12 16C12.17 16 12.34 16 12.5 16C12.85 15.18 13.34 14.46 13.95 13.86C13.32 13.95 12.67 14 12 14C9.58 14 7.3 13.4 6 12.45M12 5C15.87 5 18 6.5 18 7S15.87 9 12 9 6 7.5 6 7 8.13 5 12 5M18 18.5L19.77 16.73C19.32 16.28 18.69 16 18 16C16.62 16 15.5 17.12 15.5 18.5S16.62 21 18 21C18.82 21 19.54 20.61 20 20H21.71C21.12 21.47 19.68 22.5 18 22.5C15.79 22.5 14 20.71 14 18.5S15.79 14.5 18 14.5C19.11 14.5 20.11 14.95 20.83 15.67L22 14.5V18.5H18Z" /></svg>
